src/assets/planes/upload.svg

<svg width="64" height="48" viewBox="0 0 64 48" fill="none" xmlns="http://www.w3.org/2000/svg">
<path d="M34.2188 47.9062V34.2188H43.3438L31.9375 20.5312L20.5312 34.2188H29.6562V47.9062H18.25V47.7922C17.8668 47.815 17.5018 47.9062 17.1094 47.9062C12.5717 47.9062 8.21985 46.1037 5.01122 42.895C1.80259 39.6864 0 35.3346 0 30.7969C0 22.0186 6.63844 14.8646 15.1566 13.8837C15.9035 9.97954 17.9874 6.45765 21.0501 3.92378C24.1127 1.38991 27.9626 0.00243645 31.9375 0C35.913 0.00219758 39.7635 1.38949 42.8269 3.92331C45.8903 6.45713 47.9752 9.97914 48.7229 13.8837C57.2411 14.8646 63.8704 22.0186 63.8704 30.7969C63.8704 35.3346 62.0678 39.6864 58.8592 42.895C55.6506 46.1037 51.2987 47.9062 46.7611 47.9062C46.3778 47.9062 46.0082 47.815 45.6204 47.7922V47.9062H34.2188Z" fill="#252525" fill-opacity="0.4"/>
</svg>

<?xml version="1.0" encoding="UTF-8"?>
<svg id="Layer_1" xmlns="http://www.w3.org/2000/svg" version="1.1" viewBox="0 0 64 48">
  <!-- Generator: Adobe Illustrator 29.4.0, SVG Export Plug-In . SVG Version: 2.1.0 Build 152)  -->
  <defs>
    <style>
      .st0 {
        fill: #52c3c5;
        fill-opacity: .4;
      }
    </style>
  </defs>
  <path class="st0" d="M34.2,47.9v-13.7h9.1l-11.4-13.7-11.4,13.7h9.1v13.7h-11.4c-.4,0-.7,0-1.1,0-4.5,0-8.9-1.8-12.1-5-3.2-3.2-5-7.6-5-12.1,0-8.8,6.6-15.9,15.2-16.9.7-3.9,2.8-7.4,5.9-10C24.1,1.4,28,0,31.9,0c4,0,7.8,1.4,10.9,3.9,3.1,2.5,5.1,6.1,5.9,10,8.5,1,15.1,8.1,15.1,16.9s-1.8,8.9-5,12.1c-3.2,3.2-7.6,5-12.1,5s-.8,0-1.1-.1h0c0,.1-11.4.1-11.4.1Z"/>
</svg>
